X: 5
T: Trip to Weymouth
R: reel
B: Bland & Weller, eds. "24 Favorite Country Dances, Hornpipes and Reels", 1803, London p.3 #5
S: http://imslp.org/wiki/24_Favorite_Country_Dances,_Hornpipes_and_Reels_(Various)
M: C
L: 1/8
Z: 2012 John Chambers <jc:trillian.mit.edu>
K: Bb
|:\
fgab fdcB | AcTc2 ecTc2 |\
fgab fdcB | AcTc2 dBTB2 :|
|:\
DFBd Tc>Bce | dfTf2 bfTf2 |\
[1 DFBd cBce | d<fc<f dBTB2 :|\
[2 (g<e)(f<d)  (e<c)(d<B) | A<cF<e dBB2 |]
%%begintext align
%% Set & half right & left .|
%% back again :|
%% Down the middle up again :|.
%% Allemand :|:
%%endtext

%%sep 1 1 500
%%sep 1 1 500
